public/svgs/mood-irritation.svg

<svg width="95" height="63" viewBox="0 0 95 63" fill="none" xmlns="http://www.w3.org/2000/svg">
<mask id="mask0_2608_26111" style="mask-type:alpha" maskUnits="userSpaceOnUse" x="0" y="0" width="95" height="63">
<rect width="95" height="63" fill="#F2F2F2"/>
</mask>
<g mask="url(#mask0_2608_26111)">
<g style="mix-blend-mode:overlay" opacity="0.5" filter="url(#filter0_f_2608_26111)">
<path d="M47.5 10L53.2941 29.6677L69.5419 17.1619L62.6691 36.479L83.1646 35.9119L66.25 47.5L83.1646 59.0881L62.6691 58.521L69.5419 77.8381L53.2941 65.3323L47.5 85L41.7059 65.3323L25.4581 77.8381L32.3309 58.521L11.8354 59.0881L28.75 47.5L11.8354 35.9119L32.3309 36.479L25.4581 17.1619L41.7059 29.6677L47.5 10Z" fill="#121212"/>
</g>
</g>
<defs>
<filter id="filter0_f_2608_26111" x="7.83496" y="6" width="79.3301" height="83" filterUnits="userSpaceOnUse" color-interpolation-filters="sRGB">
<feFlood flood-opacity="0" result="BackgroundImageFix"/>
<feBlend mode="normal" in="SourceGraphic" in2="BackgroundImageFix" result="shape"/>
<feGaussianBlur stdDeviation="2" result="effect1_foregroundBlur_2608_26111"/>
</filter>
</defs>
</svg>

<svg width="95" height="63" fill="none" xmlns="http://www.w3.org/2000/svg"><mask id="a" style="mask-type:alpha" maskUnits="userSpaceOnUse" x="0" y="0" width="95" height="63"><path fill="#F2F2F2" d="M0 0h95v63H0z"/></mask><g style="mix-blend-mode:overlay" opacity=".5" filter="url(#b)" mask="url(#a)"><path d="m47.5 10 5.794 19.668 16.248-12.506-6.873 19.317 20.496-.567L66.25 47.5l16.915 11.588-20.496-.567 6.873 19.317-16.248-12.506L47.5 85l-5.794-19.668-16.248 12.506 6.873-19.317-20.496.567L28.75 47.5 11.835 35.912l20.496.567-6.873-19.317 16.248 12.506L47.5 10Z" fill="#121212"/></g><defs><filter id="b" x="7.835" y="6" width="79.33" height="83" filterUnits="userSpaceOnUse" color-interpolation-filters="sRGB"><feFlood flood-opacity="0" result="BackgroundImageFix"/><feBlend in="SourceGraphic" in2="BackgroundImageFix" result="shape"/><feGaussianBlur stdDeviation="2" result="effect1_foregroundBlur_2608_26111"/></filter></defs></svg>
